lib/brands/logos/sitecore.svg

<svg xmlns="http://www.w3.org/2000/svg" fill="none" aria-hidden="true" viewBox="0 0 220 53"><g id="Sitecore"><g id="Group"><g id="Union"><path fill="#EE3524" d="M34.1677 34.9138C32.6724 35.7525 31.0229 36.2745 29.3137 36.4967C33.0927 35.1223 36.4654 32.2343 37.8962 28.9387C39.104 26.1563 38.8989 23.3708 37.3081 20.8578L42.5372 17.4756C43.9996 19.5024 44.9795 21.9041 45.3016 24.5094H40.1904L40.1747 24.8896C39.9941 29.2832 37.8608 32.8429 34.1677 34.9138Z"/><path fill="#EE3524" d="M40.9404 25.3028H45.3789C45.4047 25.6659 45.4223 26.0307 45.4223 26.4003C45.4223 28.8736 44.8297 31.2086 43.7854 33.2746L40.8155 31.3773L40.6112 31.7386C38.2005 36.008 33.9145 38.5533 29.1398 38.5533H29.0995C26.4556 38.5453 23.9033 37.764 21.6319 36.3357C23.5216 37.0547 25.4941 37.4173 27.4355 37.4173C29.9409 37.4173 32.3947 36.8158 34.5504 35.607C38.3276 33.4888 40.6415 29.7481 40.9404 25.3028Z"/><path fill="#EE3524" d="M29.14 39.3465H29.0975C24.3404 39.3323 19.8707 36.9589 16.69 32.8732C19.1069 38.0277 24.3145 41.6037 30.3368 41.6037C35.92 41.6037 40.8007 38.529 43.4091 33.9733L41.0869 32.4898C38.4995 36.7933 34.0658 39.3465 29.14 39.3465Z"/><path fill="#EE3524" fill-rule="evenodd" d="M8.50671 26.4C8.50671 14.2497 18.2804 4.40002 30.3368 4.40002C42.3933 4.40002 52.1669 14.2497 52.1669 26.4C52.1669 38.5503 42.3933 48.4 30.3368 48.4C18.2804 48.4 8.50671 38.5503 8.50671 26.4ZM14.4637 26.4C14.4637 35.2348 21.5702 42.3967 30.3368 42.3967C39.1034 42.3967 46.2099 35.2348 46.2099 26.4C46.2099 17.5657 39.1034 10.4038 30.3368 10.4038C21.5702 10.4038 14.4637 17.5657 14.4637 26.4Z" clip-rule="evenodd"/></g><g id="Union_2"><path fill="#231F20" d="M75.6982 16.3666C76.7601 16.7433 77.6905 17.2998 78.4894 18.036L75.7109 20.9902C75.3371 20.5106 74.8485 20.1294 74.2455 19.8468C73.642 19.5646 73.0605 19.4232 72.4995 19.4232C72.2103 19.4232 71.9175 19.4489 71.6204 19.5001C71.3228 19.5513 71.0551 19.6502 70.8175 19.7956C70.5791 19.9413 70.3797 20.1294 70.2185 20.3609C70.0568 20.5918 69.9761 20.8873 69.9761 21.2468C69.9761 21.5551 70.0401 21.8121 70.1672 22.0175C70.2947 22.2229 70.4814 22.4026 70.7281 22.5568C70.9744 22.7109 71.2672 22.8522 71.6077 22.9807C71.9473 23.1093 72.3295 23.2422 72.7546 23.3787C73.3663 23.5845 74.0035 23.8115 74.6662 24.0597C75.3288 24.3079 75.9318 24.6374 76.4757 25.0486C77.0195 25.4597 77.47 25.9694 77.8268 26.5771C78.1835 27.1848 78.3619 27.9427 78.3619 28.8503C78.3619 29.8948 78.1708 30.7984 77.7886 31.5603C77.4061 32.3226 76.892 32.9515 76.2465 33.4483C75.6005 33.9452 74.8612 34.3131 74.029 34.5529C73.1963 34.7923 72.3378 34.9124 71.4547 34.9124C70.1628 34.9124 68.9143 34.685 67.7078 34.2318C66.5009 33.7782 65.4986 33.1317 64.7001 32.2921L67.5548 29.3639C67.9966 29.912 68.5781 30.37 69.3008 30.7384C70.023 31.1067 70.7408 31.2904 71.4547 31.2904C71.7773 31.2904 72.0919 31.2564 72.3978 31.1875C72.7033 31.1195 72.9711 31.0078 73.2007 30.8536C73.4299 30.6995 73.6122 30.4941 73.7485 30.2371C73.8844 29.9805 73.9523 29.6722 73.9523 29.3127C73.9523 28.9704 73.8673 28.6794 73.6977 28.4391C73.5276 28.1997 73.2853 27.9811 72.9711 27.7841C72.6564 27.5876 72.2659 27.4079 71.7988 27.2449C71.3312 27.0824 70.8 26.907 70.2058 26.718C69.6277 26.5299 69.0628 26.3073 68.5106 26.0502C67.9585 25.7936 67.4654 25.4641 67.0325 25.0614C66.599 24.659 66.2506 24.171 65.9872 23.5973C65.7234 23.0236 65.5924 22.3258 65.5924 21.5039C65.5924 20.4934 65.7962 19.6286 66.2037 18.9092C66.6117 18.1901 67.1468 17.5992 67.8099 17.1368C68.4725 16.6744 69.2197 16.3365 70.0528 16.1223C70.885 15.9086 71.726 15.8013 72.5762 15.8013C73.5956 15.8013 74.6364 15.9898 75.6982 16.3666Z"/><path fill="#231F20" d="M88.1745 34.45H83.7904V16.2637H88.1745V34.45Z"/><path fill="#231F20" d="M107.52 16.2637V20.0137H102.423V34.45H98.0643V20.0137H92.9662V16.2637H107.52Z"/><path fill="#231F20" d="M124.904 30.6995V34.45H112.312V16.2637H124.445V19.9625H116.518V23.4047H124.011V26.9238H116.518V30.6995H124.904Z"/><path fill="#231F20" d="M142.669 29.0557L145.702 31.9326C144.903 32.8574 143.917 33.5892 142.745 34.1289C141.573 34.6682 140.222 34.938 138.693 34.938C137.299 34.938 136.012 34.7066 134.831 34.2446C133.65 33.7822 132.626 33.1272 131.76 32.2793C130.893 31.4317 130.213 30.4173 129.721 29.2354C129.228 28.054 128.981 26.7529 128.981 25.3312C128.981 23.876 129.232 22.5568 129.733 21.3753C130.234 20.1939 130.927 19.1878 131.81 18.3571C132.694 17.5268 133.731 16.889 134.92 16.4434C136.109 15.9982 137.392 15.7756 138.769 15.7756C140.043 15.7756 141.296 16.0026 142.528 16.4562C143.761 16.9102 144.759 17.5736 145.523 18.4472L142.566 21.4266C142.159 20.8617 141.624 20.4421 140.961 20.1679C140.298 19.8945 139.618 19.7571 138.922 19.7571C138.157 19.7571 137.456 19.8985 136.819 20.1807C136.182 20.4633 135.634 20.8533 135.175 21.3497C134.716 21.8466 134.359 22.4331 134.105 23.1093C133.85 23.7859 133.722 24.5265 133.722 25.3312C133.722 26.1531 133.85 26.907 134.105 27.5916C134.359 28.2766 134.712 28.8631 135.162 29.3511C135.612 29.8392 136.152 30.2203 136.781 30.4941C137.409 30.7684 138.098 30.9053 138.845 30.9053C139.712 30.9053 140.468 30.7344 141.114 30.3912C141.76 30.0489 142.278 29.6038 142.669 29.0557Z"/><path fill="#231F20" fill-rule="evenodd" d="M165.188 18.3443C166.063 19.1662 166.747 20.1639 167.24 21.3369C167.732 22.5099 167.979 23.8243 167.979 25.2795C167.979 26.718 167.732 28.0328 167.24 29.2226C166.747 30.4133 166.063 31.4317 165.188 32.2793C164.312 33.1272 163.272 33.7822 162.065 34.2446C160.859 34.7066 159.551 34.938 158.14 34.938C156.73 34.938 155.426 34.7066 154.228 34.2446C153.029 33.7822 151.993 33.1272 151.118 32.2793C150.243 31.4317 149.559 30.4133 149.066 29.2226C148.573 28.0328 148.327 26.718 148.327 25.2795C148.327 23.8243 148.573 22.5099 149.066 21.3369C149.559 20.1639 150.243 19.1662 151.118 18.3443C151.993 17.5224 153.029 16.889 154.228 16.4434C155.426 15.9982 156.73 15.7756 158.14 15.7756C159.551 15.7756 160.859 15.9982 162.065 16.4434C163.272 16.889 164.312 17.5224 165.188 18.3443ZM161.862 29.3383C162.321 28.8419 162.677 28.2466 162.932 27.5532C163.187 26.8593 163.314 26.1019 163.314 25.2795C163.314 24.4921 163.187 23.7558 162.932 23.0708C162.677 22.3858 162.324 21.7993 161.874 21.3113C161.424 20.8228 160.88 20.4377 160.243 20.1551C159.606 19.8728 158.905 19.7315 158.14 19.7315C157.376 19.7315 156.679 19.8728 156.05 20.1551C155.422 20.4377 154.878 20.8228 154.419 21.3113C153.96 21.7993 153.607 22.3858 153.361 23.0708C153.115 23.7558 152.991 24.4921 152.991 25.2795C152.991 26.1019 153.118 26.8593 153.374 27.5532C153.629 28.2466 153.981 28.8419 154.432 29.3383C154.882 29.8352 155.422 30.2243 156.05 30.5069C156.679 30.7896 157.376 30.9309 158.14 30.9309C158.905 30.9309 159.601 30.7896 160.231 30.5069C160.859 30.2243 161.403 29.8352 161.862 29.3383Z" clip-rule="evenodd"/><path fill="#231F20" fill-rule="evenodd" d="M182.813 26.6668L187.529 34.45H182.431L178.513 27.2321H177.027V34.45H172.771V16.2637H179.652C180.519 16.2637 181.364 16.3533 182.188 16.5335C183.013 16.7133 183.752 17.0176 184.406 17.4451C185.06 17.8735 185.583 18.4384 185.974 19.1406C186.365 19.8428 186.56 20.7164 186.56 21.7605C186.56 22.9935 186.229 24.0301 185.566 24.8688C184.904 25.7079 183.986 26.3073 182.813 26.6668ZM181.202 23.6357C181.51 23.4816 181.761 23.2594 181.958 22.9679C182.154 22.6769 182.253 22.3002 182.253 21.8377C182.253 21.4098 182.162 21.0631 181.984 20.7972C181.804 20.5322 181.573 20.3264 181.292 20.1807C181.01 20.0354 180.694 19.9369 180.344 19.8856C179.994 19.834 179.657 19.8084 179.333 19.8084H177.002V24.0469H179.076C179.434 24.0469 179.802 24.0169 180.178 23.9568C180.554 23.8972 180.895 23.7898 181.202 23.6357Z" clip-rule="evenodd"/><path fill="#231F20" d="M204.682 30.6995V34.45H192.091V16.2637H204.223V19.9625H196.296V23.4047H203.79V26.9238H196.296V30.6995H204.682Z"/><path fill="#231F20" fill-rule="evenodd" d="M209.367 19.1135H209.006V17.0899H209.712C209.806 17.0899 209.898 17.1005 209.987 17.1212C210.076 17.1424 210.155 17.1769 210.226 17.2241C210.296 17.2718 210.353 17.3323 210.395 17.4061C210.437 17.4798 210.458 17.5722 210.458 17.6826C210.458 17.8305 210.416 17.9502 210.332 18.0425C210.248 18.1348 210.136 18.1966 209.995 18.228L210.536 19.1135H210.097L209.626 18.2678H209.367V19.1135ZM209.367 17.3981V17.9754H209.657C209.762 17.9754 209.861 17.9555 209.955 17.9158C210.05 17.8764 210.097 17.7961 210.097 17.6746C210.097 17.5642 210.054 17.4904 209.967 17.4533C209.881 17.4167 209.791 17.3981 209.696 17.3981H209.367Z" clip-rule="evenodd"/><path fill="#231F20" fill-rule="evenodd" d="M208.441 19.3706C208.28 19.2098 208.152 19.0212 208.057 18.8052C207.963 18.5893 207.916 18.3574 207.916 18.1096C207.916 17.8619 207.963 17.6287 208.057 17.4101C208.152 17.1914 208.28 17.0015 208.441 16.8408C208.604 16.68 208.793 16.5524 209.011 16.4574C209.227 16.3625 209.459 16.3152 209.705 16.3152C209.95 16.3152 210.182 16.3625 210.399 16.4574C210.615 16.5524 210.805 16.68 210.968 16.8408C211.13 17.0015 211.258 17.1914 211.353 17.4101C211.446 17.6287 211.493 17.8619 211.493 18.1096C211.493 18.3574 211.446 18.5893 211.353 18.8052C211.258 19.0212 211.13 19.2098 210.968 19.3706C210.805 19.5313 210.615 19.6576 210.399 19.7499C210.182 19.8422 209.95 19.8882 209.705 19.8882C209.459 19.8882 209.227 19.8422 209.011 19.7499C208.793 19.6576 208.604 19.5313 208.441 19.3706ZM208.638 17.0347C208.502 17.1716 208.395 17.3323 208.316 17.5165C208.238 17.7011 208.198 17.899 208.198 18.1096C208.198 18.315 208.238 18.5102 208.316 18.6944C208.395 18.879 208.502 19.0411 208.638 19.1806C208.774 19.3207 208.933 19.4297 209.116 19.5088C209.299 19.5879 209.495 19.6276 209.705 19.6276C209.913 19.6276 210.11 19.5879 210.293 19.5088C210.476 19.4297 210.636 19.3207 210.771 19.1806C210.907 19.0411 211.014 18.879 211.093 18.6944C211.171 18.5102 211.21 18.315 211.21 18.1096C211.21 17.899 211.171 17.7011 211.093 17.5165C211.014 17.3323 210.907 17.1716 210.771 17.0347C210.636 16.8973 210.476 16.7895 210.293 16.7105C210.11 16.6314 209.913 16.5917 209.705 16.5917C209.495 16.5917 209.299 16.6314 209.116 16.7105C208.933 16.7895 208.774 16.8973 208.638 17.0347Z" clip-rule="evenodd"/></g></g></g></svg>

<svg xmlns="http://www.w3.org/2000/svg" fill="none" aria-hidden="true" viewBox="0 0 220 53"><path fill="#EE3524" d="M34.168 34.914a13.44 13.44 0 0 1-4.854 1.583c3.779-1.375 7.151-4.263 8.582-7.558 1.208-2.783 1.003-5.568-.588-8.081l5.23-3.382a15.193 15.193 0 0 1 2.764 7.033H40.19l-.016.38c-.18 4.394-2.314 7.954-6.007 10.025Z"/><path fill="#EE3524" d="M40.94 25.303h4.439a15.195 15.195 0 0 1-1.593 7.972l-2.97-1.898-.205.362c-2.41 4.269-6.696 6.814-11.471 6.814h-.04c-2.644-.008-5.197-.789-7.468-2.217a16.35 16.35 0 0 0 5.804 1.081c2.505 0 4.959-.601 7.114-1.81 3.778-2.118 6.092-5.859 6.39-10.304Z"/><path fill="#EE3524" d="M29.14 39.346h-.042c-4.758-.014-9.227-2.387-12.408-6.473 2.417 5.155 7.625 8.73 13.647 8.73 5.583 0 10.464-3.074 13.072-7.63l-2.322-1.483c-2.587 4.303-7.021 6.856-11.947 6.856Z"/><path fill="#EE3524" fill-rule="evenodd" d="M8.507 26.4c0-12.15 9.774-22 21.83-22s21.83 9.85 21.83 22-9.774 22-21.83 22-21.83-9.85-21.83-22Zm5.957 0c0 8.835 7.106 15.997 15.873 15.997 8.766 0 15.873-7.162 15.873-15.997 0-8.834-7.107-15.996-15.873-15.996-8.767 0-15.873 7.162-15.873 15.996Z" clip-rule="evenodd"/><path fill="#231F20" d="M75.698 16.366a8.032 8.032 0 0 1 2.791 1.67l-2.778 2.954a3.94 3.94 0 0 0-1.465-1.143c-.604-.283-1.185-.424-1.746-.424a5.2 5.2 0 0 0-.88.077c-.297.051-.565.15-.802.296a1.984 1.984 0 0 0-.6.565c-.161.23-.242.526-.242.886 0 .308.064.565.191.77.128.206.314.386.561.54.247.154.54.295.88.424.34.128.721.261 1.147.398.611.205 1.249.432 1.911.68a7.122 7.122 0 0 1 1.81.99c.544.41.994.92 1.35 1.528.358.608.536 1.366.536 2.273 0 1.045-.191 1.948-.573 2.71a5.4 5.4 0 0 1-1.543 1.888 6.59 6.59 0 0 1-2.217 1.105 9.25 9.25 0 0 1-2.574.36c-1.292 0-2.54-.228-3.747-.681-1.207-.454-2.21-1.1-3.008-1.94l2.855-2.928c.442.548 1.023 1.006 1.746 1.374.722.369 1.44.552 2.154.552.322 0 .637-.034.943-.102.305-.069.573-.18.803-.334.229-.155.411-.36.548-.617.135-.257.203-.565.203-.924 0-.343-.085-.634-.254-.874a2.506 2.506 0 0 0-.727-.655 5.878 5.878 0 0 0-1.172-.54 64.362 64.362 0 0 0-1.593-.526 15.054 15.054 0 0 1-1.695-.668 5.65 5.65 0 0 1-1.478-.989 4.577 4.577 0 0 1-1.046-1.464c-.263-.574-.394-1.271-.394-2.093 0-1.01.203-1.876.61-2.595a5.346 5.346 0 0 1 1.607-1.772c.663-.463 1.41-.8 2.243-1.015a10.102 10.102 0 0 1 2.523-.32c1.02 0 2.06.188 3.122.564ZM88.175 34.45H83.79V16.264h4.385V34.45Zm19.345-18.186v3.75h-5.097V34.45h-4.359V20.014h-5.098v-3.75h14.554ZM124.904 30.7v3.75h-12.592V16.264h12.133v3.698h-7.927v3.443h7.493v3.519h-7.493v3.775h8.386Zm17.765-1.644 3.033 2.877c-.799.924-1.785 1.656-2.957 2.196-1.172.54-2.523.809-4.052.809-1.394 0-2.681-.232-3.862-.693a9.051 9.051 0 0 1-3.071-1.966 9.083 9.083 0 0 1-2.039-3.044c-.493-1.181-.74-2.482-.74-3.904 0-1.455.251-2.774.752-3.956a8.81 8.81 0 0 1 2.077-3.018 9.208 9.208 0 0 1 3.11-1.914c1.189-.445 2.473-.667 3.849-.667 1.274 0 2.527.227 3.759.68 1.233.454 2.231 1.117 2.995 1.991l-2.957 2.98a3.659 3.659 0 0 0-1.605-1.26 5.3 5.3 0 0 0-2.039-.41c-.765 0-1.465.141-2.103.424a4.942 4.942 0 0 0-1.644 1.169 5.316 5.316 0 0 0-1.07 1.76 6.253 6.253 0 0 0-.383 2.221c0 .822.128 1.576.383 2.26a5.26 5.26 0 0 0 1.057 1.76c.45.488.99.87 1.619 1.143a5.106 5.106 0 0 0 2.064.411c.867 0 1.623-.17 2.269-.514a4.405 4.405 0 0 0 1.555-1.335Z"/><path fill="#231F20" fill-rule="evenodd" d="M165.188 18.344c.875.822 1.559 1.82 2.052 2.993.492 1.173.739 2.487.739 3.942 0 1.439-.247 2.754-.739 3.944a8.98 8.98 0 0 1-2.052 3.056 9.127 9.127 0 0 1-3.122 1.966c-1.207.462-2.515.693-3.926.693-1.41 0-2.714-.232-3.912-.693a9.132 9.132 0 0 1-3.11-1.966 8.98 8.98 0 0 1-2.052-3.057c-.493-1.19-.738-2.504-.738-3.943 0-1.455.245-2.77.738-3.942.493-1.173 1.177-2.17 2.052-2.993.875-.822 1.911-1.455 3.11-1.9 1.198-.446 2.502-.668 3.912-.668 1.411 0 2.719.222 3.926.667 1.206.446 2.246 1.08 3.122 1.901Zm-3.326 10.994a5.277 5.277 0 0 0 1.07-1.785 6.542 6.542 0 0 0 .383-2.274 6.28 6.28 0 0 0-.383-2.208 5.28 5.28 0 0 0-1.058-1.76 4.878 4.878 0 0 0-1.631-1.156 5.135 5.135 0 0 0-2.103-.424 5.05 5.05 0 0 0-2.09.424 5.065 5.065 0 0 0-1.631 1.156 4.999 4.999 0 0 0-1.058 1.76 6.487 6.487 0 0 0-.37 2.208c0 .823.127 1.58.383 2.274a5.383 5.383 0 0 0 1.058 1.785c.45.497.99.886 1.618 1.169a5.053 5.053 0 0 0 2.09.424c.765 0 1.461-.142 2.091-.424a4.976 4.976 0 0 0 1.631-1.169Zm20.951-2.671 4.716 7.783h-5.098l-3.918-7.218h-1.485v7.218h-4.257V16.264h6.881c.867 0 1.712.09 2.536.27a6.57 6.57 0 0 1 2.218.911 4.762 4.762 0 0 1 1.568 1.695c.391.703.586 1.576.586 2.62 0 1.233-.331 2.27-.994 3.109-.662.839-1.58 1.438-2.753 1.798Zm-1.611-3.031c.308-.154.559-.377.756-.668.196-.291.295-.668.295-1.13 0-.428-.091-.775-.269-1.04a1.863 1.863 0 0 0-.692-.617 3.004 3.004 0 0 0-.948-.295 6.92 6.92 0 0 0-1.011-.078h-2.331v4.239h2.074c.358 0 .726-.03 1.102-.09.376-.06.717-.167 1.024-.321Z" clip-rule="evenodd"/><path fill="#231F20" d="M204.682 30.7v3.75h-12.591V16.264h12.132v3.698h-7.926v3.443h7.493v3.519h-7.493v3.775h8.385Z"/><path fill="#231F20" fill-rule="evenodd" d="M209.367 19.113h-.361V17.09h.706c.095 0 .186.01.275.031a.732.732 0 0 1 .239.103c.07.048.127.108.169.182a.553.553 0 0 1 .063.277.513.513 0 0 1-.126.36.623.623 0 0 1-.337.185l.541.885h-.439l-.471-.845h-.259v.845Zm0-1.715v.577h.29a.76.76 0 0 0 .299-.06c.094-.039.141-.119.141-.24 0-.11-.043-.185-.13-.222a.681.681 0 0 0-.27-.055h-.33Z" clip-rule="evenodd"/><path fill="#231F20" fill-rule="evenodd" d="M208.441 19.37a1.835 1.835 0 0 1-.384-.565 1.724 1.724 0 0 1-.141-.695c0-.248.047-.481.141-.7.095-.219.223-.409.384-.57a1.86 1.86 0 0 1 .57-.383c.216-.095.448-.142.694-.142.245 0 .477.047.694.142a1.808 1.808 0 0 1 .954.953c.093.219.14.452.14.7 0 .247-.047.48-.14.695a1.821 1.821 0 0 1-.385.566 1.81 1.81 0 0 1-.569.379 1.757 1.757 0 0 1-.694.138 1.802 1.802 0 0 1-1.264-.518Zm.197-2.335a1.515 1.515 0 0 0-.44 1.075 1.56 1.56 0 0 0 .44 1.071 1.472 1.472 0 0 0 1.067.447 1.47 1.47 0 0 0 1.066-.447 1.58 1.58 0 0 0 .322-.487c.078-.184.117-.38.117-.584a1.51 1.51 0 0 0-2.094-1.4c-.183.08-.342.187-.478.325Z" clip-rule="evenodd"/></svg>
